;FLAVOR:Marlin
;TIME:6362
;Filament used: 3.91214m
;Layer height: 0.2
;MINX:78.655
;MINY:57
;MINZ:0.2
;MAXX:142.75
;MAXY:163
;MAXZ:20
;Generated with Cura_SteamEngine 4.4.0
M140 S60
M105
M190 S60
M104 S200
M105
M109 S200
M82 ;absolute extrusion mode
M201 X500.00 Y500.00 Z100.00 E5000.00 ;Setup machine max acceleration
M203 X500.00 Y500.00 Z10.00 E50.00 ;Setup machine max feedrate
M204 P500.00 R1000.00 T500.00 ;Setup Print/Retract/Travel acceleration
M205 X8.00 Y8.00 Z0.40 E5.00 ;Setup Jerk
M220 S100 ;Reset Feedrate
M221 S100 ;Reset Flowrate

G28 ;Home

G92 E0 ;Reset Extruder
G1 Z2.0 F3000 ;Move Z Axis up
G1 X10.1 Y20 Z0.28 F5000.0 ;Move to start position
G1 X10.1 Y200.0 Z0.28 F1500.0 E15 ;Draw the first line
G1 X10.4 Y200.0 Z0.28 F5000.0 ;Move to side a little
G1 X10.4 Y20 Z0.28 F1500.0 E30 ;Draw the second line
G92 E0 ;Reset Extruder
G1 Z2.0 F3000 ;Move Z Axis up

G92 E0
G92 E0
G1 F1500 E-6.5
;LAYER_COUNT:100
;LAYER:0
M107
G0 F6000 X105.32 Y62.358 Z0.2
;TYPE:SKIRT
G1 F1500 E0
G1 F1200 X105.836 Y61.575 E0.03119
G1 X106.416 Y60.839 E0.06236
G1 X107.057 Y60.154 E0.09356
G1 X107.754 Y59.527 E0.12474
G1 X108.503 Y58.961 E0.15597
G1 X109.296 Y58.461 E0.18715
G1 X110.129 Y58.031 E0.21833
G1 X110.996 Y57.673 E0.24952
G1 X111.89 Y57.39 E0.28071
G1 X112.806 Y57.184 E0.31194
G1 X113.735 Y57.058 E0.34312
G1 X114.417 Y57.015 E0.36585
G1 X114.74 Y57.005 E0.3766
G1 X115.08 Y57 E0.38791
G1 X131.043 Y57 E0.91884
G1 X131.201 Y57.001 E0.92409
G1 X131.899 Y57.011 E0.94731
G1 X132.835 Y57.065 E0.9785
G1 X133.763 Y57.197 E1.00967
G1 X134.677 Y57.409 E1.04088
G1 X135.569 Y57.698 E1.07206
G1 X136.434 Y58.061 E1.10327
G1 X137.264 Y58.497 E1.13445
G1 X138.055 Y59.002 E1.16566
G1 X138.799 Y59.573 E1.19685
G1 X139.492 Y60.205 E1.22805
G1 X140.129 Y60.893 E1.25923
G1 X140.704 Y61.634 E1.29043
G1 X141.215 Y62.42 E1.32161
G1 X141.657 Y63.248 E1.35283
G1 X142.026 Y64.11 E1.38402
G1 X142.321 Y65 E1.4152
G1 X142.539 Y65.912 E1.44639
G1 X142.679 Y66.84 E1.4776
G1 X142.737 Y67.701 E1.50631
G1 X142.746 Y68.021 E1.51695
G1 X142.75 Y68.33 E1.52723
G1 X142.75 Y151.264 E4.28563
G1 X142.749 Y151.4 E4.29015
G1 X142.74 Y152.127 E4.31433
G1 X142.689 Y153.064 E4.34554
G1 X142.557 Y153.992 E4.37672
G1 X142.348 Y154.906 E4.4079
G1 X142.061 Y155.799 E4.4391
G1 X141.699 Y156.665 E4.47032
G1 X141.265 Y157.496 E4.5015
G1 X140.761 Y158.287 E4.5327
G1 X140.192 Y159.032 E4.56388
G1 X139.561 Y159.727 E4.5951
G1 X138.874 Y160.365 E4.62628
G1 X138.135 Y160.942 E4.65747
G1 X137.349 Y161.454 E4.68867
G1 X136.523 Y161.897 E4.71984
G1 X135.661 Y162.269 E4.75107
G1 X134.772 Y162.565 E4.78223
G1 X133.86 Y162.785 E4.81343
G1 X132.933 Y162.926 E4.84462
G1 X132.049 Y162.987 E4.87409
G1 X131.728 Y162.996 E4.88477
G1 X131.42 Y163 E4.89502
G1 X115.457 Y163 E5.42595
G1 X115.3 Y162.999 E5.43117
G1 X114.599 Y162.989 E5.45449
G1 X113.663 Y162.936 E5.48567
G1 X112.734 Y162.803 E5.51688
G1 X111.821 Y162.591 E5.54806
G1 X110.928 Y162.303 E5.57927
G1 X110.064 Y161.939 E5.61045
G1 X109.233 Y161.503 E5.64166
G1 X108.443 Y160.998 E5.67285
G1 X107.699 Y160.428 E5.70402
G1 X107.006 Y159.796 E5.73521
G1 X106.369 Y159.107 E5.76642
G1 X106.015 Y158.667 E5.78521
G1 X105.884 Y158.495 E5.7924
G1 X104.224 Y156.381 E5.8818
G1 X102.632 Y154.467 E5.9646
G1 X100.959 Y152.568 E6.04878
G1 X99.239 Y150.723 E6.13267
G1 X97.481 Y148.941 E6.21593
G1 X95.667 Y147.204 E6.29946
G1 X93.782 Y145.498 E6.38402
G1 X91.865 Y143.858 E6.46793
G1 X89.92 Y142.29 E6.55102
G1 X87.913 Y140.763 E6.6349
G1 X85.868 Y139.295 E6.71863
G1 X83.655 Y137.8 E6.80746
G1 X83.329 Y137.571 E6.82071
G1 X83.181 Y137.463 E6.8268
G1 X82.447 Y136.878 E6.85802
G1 X81.767 Y136.233 E6.88919
G1 X81.143 Y135.532 E6.92041
G1 X80.582 Y134.781 E6.95158
G1 X80.086 Y133.985 E6.98278
G1 X79.66 Y133.149 E7.01398
G1 X79.307 Y132.28 E7.04518
G1 X79.029 Y131.385 E7.07635
G1 X78.829 Y130.469 E7.10754
G1 X78.707 Y129.539 E7.13873
G1 X78.669 Y128.886 E7.16049
G1 X78.66 Y128.566 E7.17114
G1 X78.656 Y128.258 E7.18138
G1 X78.655 Y112.116 E7.71827
G1 X78.656 Y111.959 E7.72349
G1 X78.666 Y111.254 E7.74694
G1 X78.719 Y110.318 E7.77812
G1 X78.852 Y109.389 E7.80933
G1 X79.064 Y108.475 E7.84054
G1 X79.352 Y107.583 E7.87172
G1 X79.716 Y106.719 E7.9029
G1 X80.151 Y105.888 E7.9341
G1 X80.656 Y105.098 E7.96528
G1 X81.227 Y104.353 E7.9965
G1 X81.716 Y103.806 E8.02091
G1 X83.542 Y101.897 E8.10877
G1 X85.25 Y100.01 E8.19342
G1 X86.875 Y98.108 E8.27663
G1 X88.461 Y96.141 E8.36067
G1 X89.977 Y94.15 E8.4439
G1 X91.457 Y92.087 E8.52835
G1 X92.857 Y90.014 E8.61155
G1 X94.193 Y87.911 E8.69441
G1 X95.502 Y85.713 E8.7795
G1 X96.718 Y83.534 E8.8625
G1 X97.887 Y81.295 E8.9465
G1 X98.981 Y79.043 E9.02978
G1 X100.024 Y76.735 E9.11402
G1 X100.997 Y74.409 E9.19787
G1 X101.905 Y72.05 E9.28195
G1 X102.736 Y69.694 E9.36504
G1 X103.511 Y67.284 E9.44924
G1 X104.197 Y64.931 E9.53076
G1 X104.497 Y64.042 E9.56196
G1 X104.873 Y63.183 E9.59315
G1 X105.32 Y62.358 E9.62436
G0 F6000 X105.689 Y62.521
G1 F1200 X106.2 Y61.754 E9.65501
G1 X106.775 Y61.035 E9.68563
G1 X107.41 Y60.369 E9.71624
G1 X108.101 Y59.76 E9.74688
G1 X108.842 Y59.214 E9.77749
G1 X109.627 Y58.734 E9.80809
G1 X110.452 Y58.324 E9.83873
G1 X111.308 Y57.987 E9.86933
G1 X112.191 Y57.725 E9.89997
G1 X113.093 Y57.541 E9.93058
G1 X114.429 Y57.415 E9.97522
G1 X114.752 Y57.405 E9.98597
G1 X115.08 Y57.4 E9.99688
G1 X131.043 Y57.4 E10.52781
G1 X131.195 Y57.401 E10.53286
G1 X131.893 Y57.411 E10.55608
G1 X132.812 Y57.464 E10.5867
G1 X133.723 Y57.597 E10.61732
G1 X134.619 Y57.808 E10.64794
G1 X135.493 Y58.096 E10.67854
G1 X136.34 Y58.459 E10.70919
G1 X137.151 Y58.894 E10.7398
G1 X137.921 Y59.398 E10.77041
G1 X138.645 Y59.967 E10.80104
G1 X139.317 Y60.597 E10.83167
G1 X139.932 Y61.282 E10.86229
G1 X140.485 Y62.018 E10.89291
G1 X140.972 Y62.799 E10.92352
G1 X141.389 Y63.62 E10.95415
G1 X141.734 Y64.474 E10.98479
G1 X142.003 Y65.354 E11.01539
G1 X142.195 Y66.255 E11.04603
G1 X142.308 Y67.168 E11.07663
G1 X142.337 Y67.712 E11.09475
G1 X142.346 Y68.032 E11.1054
G1 X142.35 Y68.33 E11.11531
G1 X142.35 Y151.264 E13.8737
G1 X142.349 Y151.395 E13.87806
G1 X142.34 Y152.122 E13.90224
G1 X142.289 Y153.041 E13.93286
G1 X142.158 Y153.953 E13.9635
G1 X141.948 Y154.849 E13.99411
G1 X141.662 Y155.724 E14.02473
G1 X141.301 Y156.571 E14.05535
G1 X140.867 Y157.383 E14.08597
G1 X140.365 Y158.155 E14.1166
G1 X139.797 Y158.88 E14.14723
G1 X139.169 Y159.553 E14.17785
G1 X138.485 Y160.169 E14.20847
G1 X137.75 Y160.723 E14.23908
G1 X136.97 Y161.212 E14.2697
G1 X136.15 Y161.631 E14.30033
G1 X135.297 Y161.977 E14.33094
G1 X134.417 Y162.248 E14.36157
G1 X133.517 Y162.441 E14.39218
G1 X132.603 Y162.556 E14.42282
G1 X132.038 Y162.587 E14.44164
G1 X131.717 Y162.596 E14.45232
G1 X131.42 Y162.6 E14.4622
G1 X115.457 Y162.6 E14.99313
G1 X115.306 Y162.599 E14.99816
G1 X114.605 Y162.589 E15.02147
G1 X113.686 Y162.536 E15.05209
G1 X112.775 Y162.403 E15.08271
G1 X111.879 Y162.192 E15.11333
G1 X111.004 Y161.904 E15.14397
G1 X110.158 Y161.541 E15.17459
G1 X109.347 Y161.106 E15.20519
G1 X108.576 Y160.602 E15.23583
G1 X107.852 Y160.033 E15.26646
G1 X107.18 Y159.404 E15.29707
G1 X106.332 Y158.425 E15.34015
G1 X106.112 Y158.137 E15.3522
G1 X104.548 Y156.145 E15.43644
G1 X102.921 Y154.19 E15.52104
G1 X101.254 Y152.296 E15.60495
G1 X99.551 Y150.47 E15.688
G1 X97.76 Y148.654 E15.77284
G1 X95.912 Y146.885 E15.85792
G1 X94.066 Y145.214 E15.94074
G1 X92.114 Y143.545 E16.02616
G1 X90.168 Y141.976 E16.1093
G1 X88.16 Y140.448 E16.19322
G1 X86.079 Y138.954 E16.27843
G1 X83.879 Y137.468 E16.36673
G1 X83.565 Y137.248 E16.37948
G1 X83.417 Y137.14 E16.38557
G1 X82.697 Y136.565 E16.41622
G1 X82.03 Y135.93 E16.44685
G1 X81.421 Y135.24 E16.47746
G1 X80.874 Y134.5 E16.50807
G1 X80.393 Y133.715 E16.53869
G1 X79.982 Y132.891 E16.56932
G1 X79.645 Y132.034 E16.59994
G1 X79.382 Y131.152 E16.63056
G1 X79.198 Y130.25 E16.66117
G1 X79.092 Y129.335 E16.69181
G1 X79.069 Y128.875 E16.70713
G1 X79.06 Y128.555 E16.71778
G1 X79.056 Y128.258 E16.72766
G1 X79.055 Y112.116 E17.26454
G1 X79.056 Y111.965 E17.26956
G1 X79.066 Y111.26 E17.29301
G1 X79.119 Y110.341 E17.32363
G1 X79.252 Y109.429 E17.35429
G1 X79.463 Y108.533 E17.3849
G1 X79.751 Y107.659 E17.41551
G1 X80.114 Y106.813 E17.44613
G1 X80.549 Y106.001 E17.47677
G1 X81.052 Y105.231 E17.50736
G1 X81.621 Y104.507 E17.53798
G1 X82.005 Y104.083 E17.55701
G1 X83.845 Y102.159 E17.64556
G1 X85.535 Y100.292 E17.72931
G1 X87.193 Y98.352 E17.81419
G1 X88.758 Y96.411 E17.89712
G1 X90.304 Y94.38 E17.98202
G1 X91.78 Y92.322 E18.06625
G1 X93.182 Y90.247 E18.14954
G1 X94.556 Y88.083 E18.2348
G1 X95.837 Y85.933 E18.31804
G1 X97.081 Y83.704 E18.40294
G1 X98.244 Y81.476 E18.48653
G1 X99.342 Y79.217 E18.57007
G1 X100.386 Y76.905 E18.65445
G1 X101.368 Y74.559 E18.73903
G1 X102.279 Y72.19 E18.82345
G1 X103.118 Y69.812 E18.90732
G1 X103.893 Y67.403 E18.99149
G1 X104.581 Y65.043 E19.07325
G1 X104.877 Y64.171 E19.10388
G1 X105.247 Y63.328 E19.1345
G1 X105.689 Y62.521 E19.1651
G0 F6000 X106.058 Y62.684
G1 F1200 X106.563 Y61.935 E19.19515
G1 X107.133 Y61.234 E19.2252
G1 X107.762 Y60.586 E19.25524
G1 X108.446 Y59.997 E19.28526
G1 X109.18 Y59.47 E19.31531
G1 X109.957 Y59.01 E19.34534
G1 X110.772 Y58.621 E19.37538
G1 X111.618 Y58.305 E19.40542
G1 X112.489 Y58.065 E19.43547
G1 X113.377 Y57.904 E19.46548
G1 X114.441 Y57.815 E19.501
G1 X114.764 Y57.805 E19.51174
G1 X115.08 Y57.8 E19.52226
G1 X131.043 Y57.8 E20.05319
G1 X131.189 Y57.801 E20.05804
G1 X131.887 Y57.811 E20.08126
G1 X132.789 Y57.864 E20.11131
G1 X133.682 Y57.996 E20.14134
G1 X134.56 Y58.207 E20.17137
G1 X135.416 Y58.495 E20.20141
G1 X136.243 Y58.857 E20.23144
G1 X137.035 Y59.292 E20.26149
G1 X137.786 Y59.794 E20.29154
G1 X138.489 Y60.361 E20.32157
G1 X139.139 Y60.988 E20.35161
G1 X139.731 Y61.67 E20.38165
G1 X140.261 Y62.401 E20.41168
G1 X140.723 Y63.177 E20.44172
G1 X141.116 Y63.99 E20.47175
G1 X141.434 Y64.835 E20.50178
G1 X141.677 Y65.705 E20.53183
G1 X141.842 Y66.593 E20.56187
G1 X141.937 Y67.723 E20.59958
G1 X141.946 Y68.043 E20.61023
G1 X141.95 Y68.33 E20.61978
G1 X141.95 Y151.264 E23.37817
G1 X141.949 Y151.39 E23.38236
G1 X141.94 Y152.117 E23.40655
G1 X141.889 Y153.019 E23.43659
G1 X141.758 Y153.913 E23.46665
G1 X141.549 Y154.791 E23.49666
G1 X141.263 Y155.648 E23.52671
G1 X140.902 Y156.476 E23.55676
G1 X140.47 Y157.268 E23.58676
G1 X139.969 Y158.02 E23.61682
G1 X139.403 Y158.724 E23.64686
G1 X138.778 Y159.375 E23.67688
G1 X138.097 Y159.969 E23.70693
G1 X137.366 Y160.5 E23.73698
G1 X136.592 Y160.964 E23.767
G1 X135.779 Y161.358 E23.79705
G1 X134.935 Y161.678 E23.82707
G1 X134.065 Y161.923 E23.85713
G1 X133.178 Y162.089 E23.88714
G1 X132.027 Y162.187 E23.92556
G1 X131.706 Y162.196 E23.93625
G1 X131.42 Y162.2 E23.94576
G1 X115.457 Y162.2 E24.47669
G1 X115.312 Y162.199 E24.48151
G1 X114.611 Y162.189 E24.50483
G1 X113.709 Y162.136 E24.53488
G1 X112.816 Y162.004 E24.56491
G1 X111.937 Y161.793 E24.59497
G1 X111.081 Y161.505 E24.62501
G1 X110.254 Y161.143 E24.65504
G1 X109.462 Y160.709 E24.68508
G1 X108.712 Y160.206 E24.71511
G1 X108.009 Y159.639 E24.74515
G1 X107.359 Y159.013 E24.77517
G1 X106.65 Y158.182 E24.8115
G1 X106.466 Y157.942 E24.82156
G1 X104.851 Y155.884 E24.90857
G1 X103.23 Y153.936 E24.99285
G1 X101.546 Y152.023 E25.07762
G1 X99.829 Y150.181 E25.16138
G1 X98.039 Y148.367 E25.24614
G1 X96.191 Y146.598 E25.33122
G1 X94.33 Y144.914 E25.4147
G1 X92.359 Y143.228 E25.50097
G1 X90.416 Y141.661 E25.58399
G1 X88.396 Y140.125 E25.66839
G1 X86.331 Y138.642 E25.75295
G1 X84.103 Y137.137 E25.84238
G1 X83.8 Y136.924 E25.8547
G1 X83.652 Y136.816 E25.86079
G1 X82.947 Y136.252 E25.89082
G1 X82.295 Y135.628 E25.92084
G1 X81.7 Y134.948 E25.95089
G1 X81.167 Y134.219 E25.98093
G1 X80.702 Y133.445 E26.01096
G1 X80.306 Y132.633 E26.04101
G1 X79.984 Y131.79 E26.07102
G1 X79.738 Y130.921 E26.10106
G1 X79.57 Y130.033 E26.13112
G1 X79.469 Y128.864 E26.17014
G1 X79.46 Y128.544 E26.18079
G1 X79.456 Y128.258 E26.1903
G1 X79.455 Y112.116 E26.72719
G1 X79.456 Y111.97 E26.73204
G1 X79.466 Y111.265 E26.7555
G1 X79.519 Y110.364 E26.78551
G1 X79.651 Y109.47 E26.81557
G1 X79.862 Y108.592 E26.84561
G1 X80.15 Y107.736 E26.87564
G1 X80.512 Y106.909 E26.90567
G1 X80.946 Y106.117 E26.93571
G1 X81.448 Y105.366 E26.96575
G1 X82.294 Y104.359 E27.0095
G1 X84.148 Y102.42 E27.09872
G1 X85.835 Y100.557 E27.18232
G1 X87.492 Y98.618 E27.26715
G1 X89.072 Y96.659 E27.35086
G1 X90.632 Y94.609 E27.43654
G1 X92.121 Y92.533 E27.52151
G1 X93.519 Y90.464 E27.60456
G1 X94.885 Y88.312 E27.68934
G1 X96.18 Y86.138 E27.7735
G1 X97.425 Y83.908 E27.85845
G1 X98.614 Y81.63 E27.94392
G1 X99.694 Y79.407 E28.02612
G1 X100.761 Y77.045 E28.11232
G1 X101.734 Y74.721 E28.19612
G1 X102.666 Y72.3 E28.2824
G1 X103.49 Y69.963 E28.36482
G1 X104.275 Y67.523 E28.45007
G1 X104.965 Y65.155 E28.53211
G1 X105.256 Y64.3 E28.56215
G1 X105.621 Y63.474 E28.59218
G1 X106.058 Y62.684 E28.62221
G0 F6000 X122.146 Y75.912
G1 F1200 X122.305 Y75.717 E28.63058
G1 X122.507 Y75.552 E28.63925
G1 X122.74 Y75.427 E28.64805
G1 X122.983 Y75.353 E28.6565
G1 X123.25 Y75.327 E28.66542
G1 X123.517 Y75.353 E28.67434
G1 X123.762 Y75.427 E28.68286
G1 X123.99 Y75.549 E28.69146
G1 X124.201 Y75.724 E28.70057
G1 X124.367 Y75.929 E28.70935
G1 X124.488 Y76.158 E28.71796
G1 X124.564 Y76.411 E28.72675
G1 X124.587 Y76.663 E28.73516
G1 X124.559 Y76.939 E28.74439
G1 X124.483 Y77.184 E28.75292
G1 X124.355 Y77.419 E28.76182
G1 X124.195 Y77.616 E28.77026
G1 X123.993 Y77.781 E28.77894
G1 X123.762 Y77.905 E28.78766
G1 X123.511 Y77.982 E28.79639
G1 X123.25 Y78.007 E28.80511
G1 X122.988 Y77.982 E28.81387
G1 X122.74 Y77.906 E28.82249
G1 X122.508 Y77.782 E28.83124
G1 X122.299 Y77.609 E28.84027
G1 X122.132 Y77.403 E28.84909
G1 X122.012 Y77.175 E28.85766
G1 X121.936 Y76.922 E28.86644
G1 X121.913 Y76.663 E28.87509
G1 X121.941 Y76.392 E28.88415
G1 X122.014 Y76.154 E28.89243
G1 X122.146 Y75.912 E28.9016
G0 F6000 X122.478 Y76.138
G1 F1200 X122.589 Y76.001 E28.90746
G1 X122.733 Y75.884 E28.91364
G1 X122.892 Y75.798 E28.91965
G1 X123.061 Y75.747 E28.92552
G1 X123.25 Y75.729 E28.93183
G1 X123.437 Y75.747 E28.93808
G1 X123.607 Y75.799 E28.944
G1 X123.768 Y75.885 E28.95007
G1 X123.914 Y76.005 E28.95635
G1 X124.035 Y76.155 E28.96276
G1 X124.116 Y76.308 E28.96852
G1 X124.168 Y76.484 E28.97462
G1 X124.185 Y76.663 E28.9806
G1 X124.165 Y76.858 E28.98712
G1 X124.113 Y77.026 E28.99297
G1 X124.02 Y77.197 E28.99945
G1 X123.911 Y77.332 E29.00522
G1 X123.771 Y77.446 E29.01122
G1 X123.608 Y77.533 E29.01737
G1 X123.429 Y77.588 E29.0236
G1 X123.25 Y77.605 E29.02958
G1 X123.069 Y77.588 E29.03562
G1 X122.894 Y77.535 E29.04171
G1 X122.73 Y77.447 E29.0479
G1 X122.586 Y77.328 E29.05411
G1 X122.465 Y77.178 E29.06052
G1 X122.384 Y77.025 E29.06628
G1 X122.332 Y76.849 E29.07238
G1 X122.315 Y76.663 E29.07859
G1 X122.335 Y76.47 E29.08505
G1 X122.385 Y76.309 E29.09065
G1 X122.478 Y76.138 E29.09713
G0 F6000 X122.81 Y76.364
G1 F1200 X122.874 Y76.286 E29.10048
G1 X122.954 Y76.221 E29.10391
G1 X123.05 Y76.169 E29.10754
G1 X123.141 Y76.141 E29.11071
G1 X123.25 Y76.131 E29.11435
G1 X123.357 Y76.141 E29.11793
G1 X123.454 Y76.171 E29.1213
G1 X123.541 Y76.217 E29.12458
G1 X123.631 Y76.292 E29.12847
G1 X123.696 Y76.371 E29.13187
G1 X123.744 Y76.461 E29.13527
G1 X123.774 Y76.56 E29.13871
G1 X123.783 Y76.661 E29.14208
G1 X123.771 Y76.779 E29.14603
G1 X123.743 Y76.869 E29.14916
G1 X123.687 Y76.973 E29.15309
G1 X123.626 Y77.047 E29.15628
G1 X123.545 Y77.114 E29.15977
G1 X123.453 Y77.163 E29.16324
G1 X123.352 Y77.194 E29.16676
G1 X123.25 Y77.204 E29.17016
G1 X123.149 Y77.194 E29.17354
G1 X123.045 Y77.162 E29.17716
G1 X122.959 Y77.116 E29.1804
G1 X122.869 Y77.041 E29.1843
G1 X122.803 Y76.96 E29.18777
G1 X122.755 Y76.87 E29.19117
G1 X122.726 Y76.773 E29.19453
G1 X122.717 Y76.669 E29.19801
G1 X122.729 Y76.554 E29.20185
G1 X122.758 Y76.46 E29.20512
G1 X122.81 Y76.364 E29.20876
G0 F6000 X123.144 Y76.587
G1 F1200 X123.158 Y76.57 E29.20949
G1 X123.179 Y76.553 E29.21039
G1 X123.202 Y76.541 E29.21125
G1 X123.219 Y76.536 E29.21184
G1 X123.25 Y76.533 E29.21287
G1 X123.278 Y76.535 E29.21381
G1 X123.299 Y76.542 E29.21454
G1 X123.32 Y76.553 E29.21533
G1 X123.344 Y76.573 E29.21637
