;FLAVOR:Marlin
;TIME:2888
;Filament used: 1.92611m
;Layer height: 0.2
;MINX:86.5
;MINY:49
;MINZ:0.2
;MAXX:133.5
;MAXY:171
;MAXZ:4
;Generated with Cura_SteamEngine 4.4.0
M140 S60
M105
M190 S60
M104 S200
M105
M109 S200
M82 ;absolute extrusion mode
M201 X500.00 Y500.00 Z100.00 E5000.00 ;Setup machine max acceleration
M203 X500.00 Y500.00 Z10.00 E50.00 ;Setup machine max feedrate
M204 P500.00 R1000.00 T500.00 ;Setup Print/Retract/Travel acceleration
M205 X8.00 Y8.00 Z0.40 E5.00 ;Setup Jerk
M220 S100 ;Reset Feedrate
M221 S100 ;Reset Flowrate

G28 ;Home

G92 E0 ;Reset Extruder
G1 Z2.0 F3000 ;Move Z Axis up
G1 X10.1 Y20 Z0.28 F5000.0 ;Move to start position
G1 X10.1 Y200.0 Z0.28 F1500.0 E15 ;Draw the first line
G1 X10.4 Y200.0 Z0.28 F5000.0 ;Move to side a little
G1 X10.4 Y20 Z0.28 F1500.0 E30 ;Draw the second line
G92 E0 ;Reset Extruder
G1 Z2.0 F3000 ;Move Z Axis up

G92 E0
G92 E0
G1 F1500 E-6.5
;LAYER_COUNT:20
;LAYER:0
M107
G0 F6000 X87.992 Y54.493 Z0.2
;TYPE:SKIRT
G1 F1500 E0
G1 F1200 X88.496 Y53.703 E0.03117
G1 X89.066 Y52.958 E0.06237
G1 X89.698 Y52.264 E0.09359
G1 X90.386 Y51.627 E0.12477
G1 X91.126 Y51.051 E0.15596
G1 X91.912 Y50.539 E0.18716
G1 X92.739 Y50.097 E0.21835
G1 X93.601 Y49.727 E0.24955
G1 X94.491 Y49.431 E0.28074
G1 X95.403 Y49.213 E0.31193
G1 X96.33 Y49.072 E0.34312
G1 X97.201 Y49.013 E0.37216
G1 X97.522 Y49.004 E0.38284
G1 X97.83 Y49 E0.39308
G1 X121.793 Y49 E1.19009
G1 X121.951 Y49.001 E1.19535
G1 X122.649 Y49.011 E1.21857
G1 X123.585 Y49.065 E1.24975
G1 X124.513 Y49.197 E1.28093
G1 X125.427 Y49.409 E1.31213
G1 X126.319 Y49.698 E1.34332
G1 X127.184 Y50.061 E1.37452
G1 X128.014 Y50.497 E1.4057
G1 X128.805 Y51.002 E1.43692
G1 X129.549 Y51.573 E1.46811
G1 X130.242 Y52.205 E1.4993
G1 X130.879 Y52.893 E1.53049
G1 X131.454 Y53.634 E1.56168
G1 X131.965 Y54.42 E1.59287
G1 X132.407 Y55.248 E1.62408
G1 X132.776 Y56.11 E1.65527
G1 X133.071 Y57 E1.68646
G1 X133.289 Y57.912 E1.71764
G1 X133.429 Y58.84 E1.74886
G1 X133.487 Y59.701 E1.77756
G1 X133.496 Y60.021 E1.78821
G1 X133.5 Y60.33 E1.79849
G1 X133.5 Y159.264 E5.08904
G1 X133.499 Y159.4 E5.09357
G1 X133.49 Y160.127 E5.11775
G1 X133.439 Y161.064 E5.14896
G1 X133.307 Y161.992 E5.18014
G1 X133.098 Y162.906 E5.21132
G1 X132.811 Y163.799 E5.24252
G1 X132.449 Y164.665 E5.27374
G1 X132.015 Y165.496 E5.30492
G1 X131.511 Y166.287 E5.33611
G1 X130.942 Y167.032 E5.36729
G1 X130.311 Y167.727 E5.39851
G1 X129.624 Y168.365 E5.4297
G1 X128.885 Y168.942 E5.46088
G1 X128.099 Y169.454 E5.49208
G1 X127.273 Y169.897 E5.52326
G1 X126.411 Y170.269 E5.55448
G1 X125.522 Y170.565 E5.58565
G1 X124.61 Y170.785 E5.61685
G1 X123.683 Y170.926 E5.64804
G1 X122.799 Y170.987 E5.67751
G1 X122.478 Y170.996 E5.68819
G1 X122.17 Y171 E5.69843
G1 X98.207 Y171 E6.49545
G1 X98.065 Y170.999 E6.50017
G1 X97.367 Y170.99 E6.52339
G1 X96.431 Y170.938 E6.55457
G1 X95.502 Y170.806 E6.58578
G1 X94.588 Y170.596 E6.61697
G1 X93.695 Y170.309 E6.64817
G1 X92.83 Y169.946 E6.67937
G1 X91.999 Y169.512 E6.71055
G1 X91.208 Y169.008 E6.74174
G1 X90.463 Y168.438 E6.77294
G1 X89.769 Y167.807 E6.80414
G1 X89.132 Y167.12 E6.8353
G1 X88.555 Y166.38 E6.86651
G1 X88.043 Y165.594 E6.89771
G1 X87.6 Y164.767 E6.92891
G1 X87.229 Y163.906 E6.9601
G1 X86.933 Y163.016 E6.99129
G1 X86.714 Y162.104 E7.02249
G1 X86.573 Y161.177 E7.05367
G1 X86.513 Y160.288 E7.08331
G1 X86.504 Y159.955 E7.09439
G1 X86.5 Y159.658 E7.10427
G1 X86.5 Y60.674 E10.39649
G1 X86.501 Y60.525 E10.40145
G1 X86.51 Y59.86 E10.42357
G1 X86.563 Y58.924 E10.45475
G1 X86.695 Y57.995 E10.48596
G1 X86.906 Y57.081 E10.51716
G1 X87.194 Y56.189 E10.54833
G1 X87.557 Y55.324 E10.57953
G1 X87.992 Y54.493 E10.61073
G0 F6000 X88.389 Y54.606
G1 F1200 X88.892 Y53.835 E10.64135
G1 X89.461 Y53.111 E10.67197
G1 X90.089 Y52.439 E10.70257
G1 X90.774 Y51.823 E10.73321
G1 X91.51 Y51.27 E10.76383
G1 X92.291 Y50.782 E10.79446
G1 X93.111 Y50.364 E10.82507
G1 X93.965 Y50.019 E10.8557
G1 X94.845 Y49.749 E10.88632
G1 X95.745 Y49.557 E10.91693
G1 X96.659 Y49.443 E10.94756
G1 X97.212 Y49.413 E10.96598
G1 X97.533 Y49.404 E10.97666
G1 X97.83 Y49.4 E10.98654
G1 X121.793 Y49.4 E11.78355
G1 X121.945 Y49.401 E11.78861
G1 X122.643 Y49.411 E11.81183
G1 X123.562 Y49.464 E11.84244
G1 X124.473 Y49.597 E11.87307
G1 X125.369 Y49.808 E11.90368
G1 X126.243 Y50.096 E11.93429
G1 X127.09 Y50.459 E11.96494
G1 X127.901 Y50.894 E11.99555
G1 X128.671 Y51.398 E12.02616
G1 X129.395 Y51.967 E12.05678
G1 X130.067 Y52.597 E12.08742
G1 X130.682 Y53.282 E12.11804
G1 X131.235 Y54.018 E12.14866
G1 X131.722 Y54.799 E12.17927
G1 X132.139 Y55.62 E12.2099
G1 X132.484 Y56.474 E12.24053
G1 X132.753 Y57.354 E12.27114
G1 X132.945 Y58.255 E12.30178
G1 X133.058 Y59.168 E12.33238
G1 X133.087 Y59.712 E12.3505
G1 X133.096 Y60.032 E12.36114
G1 X133.1 Y60.33 E12.37106
G1 X133.1 Y159.264 E15.66161
G1 X133.099 Y159.395 E15.66597
G1 X133.09 Y160.122 E15.69015
G1 X133.039 Y161.041 E15.72077
G1 X132.908 Y161.953 E15.75141
G1 X132.698 Y162.849 E15.78202
G1 X132.412 Y163.724 E15.81264
G1 X132.051 Y164.571 E15.84326
G1 X131.617 Y165.383 E15.87388
G1 X131.115 Y166.155 E15.90451
G1 X130.547 Y166.88 E15.93514
G1 X129.919 Y167.553 E15.96576
G1 X129.235 Y168.169 E15.99638
G1 X128.5 Y168.723 E16.02699
G1 X127.72 Y169.212 E16.05761
G1 X126.9 Y169.631 E16.08823
G1 X126.047 Y169.977 E16.11885
G1 X125.167 Y170.248 E16.14948
G1 X124.267 Y170.441 E16.18009
G1 X123.353 Y170.556 E16.21073
G1 X122.788 Y170.587 E16.22955
G1 X122.467 Y170.596 E16.24023
G1 X122.17 Y170.6 E16.25011
G1 X98.207 Y170.6 E17.04712
G1 X98.07 Y170.599 E17.05168
G1 X97.372 Y170.59 E17.0749
G1 X96.453 Y170.538 E17.10551
G1 X95.542 Y170.407 E17.13612
G1 X94.646 Y170.197 E17.16673
G1 X93.771 Y169.91 E17.19736
G1 X92.924 Y169.548 E17.228
G1 X92.112 Y169.114 E17.25862
G1 X91.341 Y168.612 E17.28922
G1 X90.616 Y168.044 E17.31985
G1 X89.943 Y167.415 E17.35049
G1 X89.328 Y166.731 E17.38108
G1 X88.774 Y165.996 E17.4117
G1 X88.286 Y165.215 E17.44233
G1 X87.867 Y164.395 E17.47296
G1 X87.521 Y163.542 E17.50357
G1 X87.251 Y162.662 E17.53419
G1 X87.058 Y161.761 E17.56483
G1 X86.944 Y160.848 E17.59544
G1 X86.913 Y160.277 E17.61446
G1 X86.904 Y159.944 E17.62554
G1 X86.9 Y159.658 E17.63505
G1 X86.9 Y60.674 E20.92727
G1 X86.901 Y60.531 E20.93203
G1 X86.91 Y59.866 E20.95415
G1 X86.962 Y58.946 E20.98479
G1 X87.094 Y58.035 E21.01541
G1 X87.305 Y57.139 E21.04603
G1 X87.592 Y56.264 E21.07666
G1 X87.955 Y55.418 E21.10727
G1 X88.389 Y54.606 E21.1379
G0 F6000 X88.786 Y54.722
G1 F1200 X89.288 Y53.971 E21.16794
G1 X89.855 Y53.267 E21.19801
G1 X90.481 Y52.617 E21.22802
G1 X91.162 Y52.024 E21.25806
G1 X91.894 Y51.494 E21.28811
G1 X92.669 Y51.031 E21.31814
G1 X93.482 Y50.638 E21.34817
G1 X94.327 Y50.318 E21.37823
G1 X95.196 Y50.075 E21.40824
G1 X96.084 Y49.909 E21.43829
G1 X97.223 Y49.813 E21.4763
G1 X97.544 Y49.804 E21.48698
G1 X97.83 Y49.8 E21.4965
G1 X121.793 Y49.8 E22.29351
G1 X121.939 Y49.801 E22.29837
G1 X122.637 Y49.811 E22.32158
G1 X123.539 Y49.864 E22.35164
G1 X124.432 Y49.996 E22.38166
G1 X125.31 Y50.207 E22.41169
G1 X126.166 Y50.495 E22.44173
G1 X126.993 Y50.857 E22.47176
G1 X127.785 Y51.292 E22.50181
G1 X128.536 Y51.794 E22.53186
G1 X129.239 Y52.361 E22.5619
G1 X129.889 Y52.988 E22.59193
G1 X130.481 Y53.67 E22.62197
G1 X131.011 Y54.401 E22.652
G1 X131.473 Y55.177 E22.68204
G1 X131.866 Y55.99 E22.71207
G1 X132.184 Y56.835 E22.7421
G1 X132.427 Y57.705 E22.77215
G1 X132.592 Y58.593 E22.80219
G1 X132.687 Y59.723 E22.8399
G1 X132.696 Y60.043 E22.85055
G1 X132.7 Y60.33 E22.8601
G1 X132.7 Y159.264 E26.15066
G1 X132.699 Y159.39 E26.15485
G1 X132.69 Y160.117 E26.17903
G1 X132.639 Y161.019 E26.20908
G1 X132.508 Y161.913 E26.23913
G1 X132.299 Y162.791 E26.26915
G1 X132.013 Y163.648 E26.2992
G1 X131.652 Y164.476 E26.32924
G1 X131.22 Y165.268 E26.35925
G1 X130.719 Y166.02 E26.3893
G1 X130.153 Y166.724 E26.41935
G1 X129.528 Y167.375 E26.44936
G1 X128.847 Y167.969 E26.47942
G1 X128.116 Y168.5 E26.50947
G1 X127.342 Y168.964 E26.53948
G1 X126.529 Y169.358 E26.56953
G1 X125.685 Y169.678 E26.59955
G1 X124.815 Y169.923 E26.62961
G1 X123.928 Y170.089 E26.65963
G1 X122.777 Y170.187 E26.69805
G1 X122.456 Y170.196 E26.70873
G1 X122.17 Y170.2 E26.71824
G1 X98.207 Y170.2 E27.51526
G1 X98.075 Y170.199 E27.51965
G1 X97.377 Y170.19 E27.54286
G1 X96.476 Y170.139 E27.57288
G1 X95.582 Y170.007 E27.60294
G1 X94.704 Y169.798 E27.63295
G1 X93.847 Y169.511 E27.66301
G1 X93.02 Y169.15 E27.69303
G1 X92.227 Y168.717 E27.72308
G1 X91.476 Y168.216 E27.7531
G1 X90.772 Y167.65 E27.78315
G1 X90.121 Y167.024 E27.81319
G1 X89.528 Y166.343 E27.84322
G1 X88.998 Y165.612 E27.87325
G1 X88.534 Y164.837 E27.9033
G1 X88.14 Y164.024 E27.93334
G1 X87.82 Y163.18 E27.96337
G1 X87.576 Y162.31 E27.99342
G1 X87.41 Y161.422 E28.02347
G1 X87.313 Y160.267 E28.06202
G1 X87.304 Y159.934 E28.0731
G1 X87.3 Y159.658 E28.08228
G1 X87.3 Y60.674 E31.3745
G1 X87.301 Y60.536 E31.37909
G1 X87.31 Y59.871 E31.40121
G1 X87.362 Y58.969 E31.43126
G1 X87.494 Y58.076 E31.46128
G1 X87.704 Y57.198 E31.49131
G1 X87.991 Y56.341 E31.52137
G1 X88.353 Y55.514 E31.55139
G1 X88.786 Y54.722 E31.58142
G1 F1500 E25.08142
;MESH:robot_step5.stl
G0 F6000 X105.811 Y74.932
G0 X104.091 Y74.218
G0 X104.467 Y77.766
G0 X104.788 Y78.826
G0 X105.309 Y79.802
G0 X106.011 Y80.656
G0 X106.865 Y81.357
G0 X107.141 Y81.504
G0 X110 Y82.872
;TYPE:WALL-INNER
G1 F1500 E31.58142
G1 F1200 X111.209 Y82.752 E31.62182
G1 X112.375 Y82.399 E31.66234
G1 X113.447 Y81.825 E31.70279
G1 X114.387 Y81.054 E31.74322
G1 X115.159 Y80.114 E31.78368
G1 X115.732 Y79.042 E31.82411
G1 X116.085 Y77.876 E31.86463
G1 X116.205 Y76.667 E31.90504
G1 X116.085 Y75.457 E31.94548
G1 X115.732 Y74.292 E31.98597
G1 X115.159 Y73.22 E32.0264
G1 X114.387 Y72.28 E32.06685
G1 X113.447 Y71.508 E32.10731
G1 X112.375 Y70.934 E32.14776
G1 X111.209 Y70.582 E32.18827
G1 X110 Y70.462 E32.22868
G1 X108.791 Y70.582 E32.26908
G1 X107.625 Y70.934 E32.30959
G1 X106.553 Y71.508 E32.35004
G1 X105.613 Y72.28 E32.3905
G1 X104.841 Y73.22 E32.43095
G1 X104.268 Y74.292 E32.47138
G1 X103.915 Y75.457 E32.51187
G1 X103.795 Y76.667 E32.55231
G1 X103.915 Y77.876 E32.59272
G1 X104.268 Y79.042 E32.63324
G1 X104.841 Y80.114 E32.67367
G1 X105.613 Y81.054 E32.71413
G1 X106.553 Y81.825 E32.75456
G1 X107.625 Y82.399 E32.79501
G1 X108.791 Y82.752 E32.83553
G1 X110 Y82.872 E32.87593
G0 F6000 X110 Y82.47
G1 F1200 X111.131 Y82.358 E32.91374
G1 X112.221 Y82.028 E32.95161
G1 X113.224 Y81.491 E32.98945
G1 X114.103 Y80.77 E33.02727
G1 X114.825 Y79.891 E33.0651
G1 X115.361 Y78.888 E33.10293
G1 X115.691 Y77.798 E33.1408
G1 X115.803 Y76.667 E33.17861
G1 X115.691 Y75.535 E33.21644
G1 X115.361 Y74.446 E33.25429
G1 X114.825 Y73.443 E33.29211
G1 X114.103 Y72.564 E33.32995
G1 X113.224 Y71.842 E33.36778
G1 X112.221 Y71.305 E33.40562
G1 X111.131 Y70.976 E33.44349
G1 X110 Y70.864 E33.48129
G1 X108.869 Y70.976 E33.51909
G1 X107.779 Y71.305 E33.55696
G1 X106.776 Y71.842 E33.5948
G1 X105.897 Y72.564 E33.63263
G1 X105.175 Y73.443 E33.67047
G1 X104.639 Y74.446 E33.70829
G1 X104.309 Y75.535 E33.74614
G1 X104.197 Y76.667 E33.78397
G1 X104.309 Y77.798 E33.82177
G1 X104.639 Y78.888 E33.85965
G1 X105.175 Y79.891 E33.89748
G1 X105.897 Y80.77 E33.93531
G1 X106.776 Y81.491 E33.97312
G1 X107.779 Y82.028 E34.01096
G1 X108.869 Y82.358 E34.04884
G1 X110 Y82.47 E34.08664
G0 F6000 X110 Y82.068
;TYPE:WALL-OUTER
G1 F1200 X111.053 Y81.964 E34.12184
G1 X112.067 Y81.657 E34.15707
G1 X113.001 Y81.157 E34.19231
G1 X113.819 Y80.486 E34.2275
G1 X114.491 Y79.668 E34.26271
G1 X114.99 Y78.734 E34.29793
G1 X115.297 Y77.72 E34.33317
G1 X115.401 Y76.667 E34.36836
G1 X115.297 Y75.613 E34.40359
G1 X114.99 Y74.6 E34.43879
G1 X114.491 Y73.666 E34.47401
G1 X113.819 Y72.848 E34.50922
G1 X113.001 Y72.176 E34.54444
G1 X112.067 Y71.676 E34.57967
G1 X111.053 Y71.37 E34.6149
G1 X110 Y71.266 E34.65009
G1 X108.947 Y71.37 E34.68529
G1 X107.933 Y71.676 E34.72051
G1 X106.999 Y72.176 E34.75575
G1 X106.181 Y72.848 E34.79096
G1 X105.509 Y73.666 E34.82617
G1 X105.01 Y74.6 E34.86139
G1 X104.703 Y75.613 E34.8966
G1 X104.599 Y76.667 E34.93182
G1 X104.703 Y77.72 E34.96702
G1 X105.01 Y78.734 E35.00225
G1 X105.509 Y79.668 E35.03748
G1 X106.181 Y80.486 E35.07269
G1 X106.999 Y81.157 E35.10787
G1 X107.933 Y81.657 E35.14311
G1 X108.947 Y81.964 E35.17835
G1 X110 Y82.068 E35.21354
G0 F6000 X110 Y82.508
G1 F1500 E28.71354
G0 F6000 X110 Y83.063
G0 X110 Y81.199
G0 X110 Y88.801
G0 X110 Y86.937
G0 X113.135 Y88.643
G0 X113.989 Y89.344
G0 X114.691 Y90.198
G0 X115.212 Y91.174
G0 X115.533 Y92.234
G0 X115.642 Y93.333
G0 X115.533 Y94.433
G0 X115.212 Y95.492
G0 X114.691 Y96.468
G0 X113.989 Y97.322
G0 X113.135 Y98.024
G0 X112.859 Y98.171
G0 X110 Y99.538
;TYPE:WALL-INNER
G1 F1500 E35.21354
G1 F1200 X111.209 Y99.418 E35.25395
G1 X112.375 Y99.065 E35.29447
G1 X113.447 Y98.492 E35.3349
G1 X114.387 Y97.72 E35.37536
G1 X115.159 Y96.78 E35.41581
G1 X115.732 Y95.708 E35.45624
G1 X116.085 Y94.543 E35.49673
G1 X116.205 Y93.333 E35.53717
G1 X116.085 Y92.124 E35.57758
G1 X115.732 Y90.958 E35.6181
G1 X115.159 Y89.886 E35.65853
G1 X114.387 Y88.946 E35.69899
G1 X113.447 Y88.175 E35.73942
G1 X112.375 Y87.601 E35.77987
G1 X111.209 Y87.248 E35.82039
G1 X110 Y87.128 E35.8608
G1 X108.791 Y87.248 E35.9012
G1 X107.625 Y87.601 E35.94172
G1 X106.553 Y88.175 E35.98217
G1 X105.613 Y88.946 E36.0226
G1 X104.841 Y89.886 E36.06306
G1 X104.268 Y90.958 E36.10349
G1 X103.915 Y92.124 E36.14401
G1 X103.795 Y93.333 E36.18442
G1 X103.915 Y94.543 E36.22486
G1 X104.268 Y95.708 E36.26535
G1 X104.841 Y96.78 E36.30578
G1 X105.613 Y97.72 E36.34623
G1 X106.553 Y98.492 E36.38669
G1 X107.625 Y99.065 E36.42712
G1 X108.791 Y99.418 E36.46764
G1 X110 Y99.538 E36.50805
G0 F6000 X110 Y99.136
G1 F1200 X111.131 Y99.024 E36.54585
G1 X112.221 Y98.694 E36.58373
G1 X113.224 Y98.158 E36.62155
G1 X114.103 Y97.436 E36.65939
G1 X114.825 Y96.557 E36.69722
G1 X115.361 Y95.554 E36.73505
G1 X115.691 Y94.465 E36.77289
G1 X115.803 Y93.333 E36.81073
G1 X115.691 Y92.202 E36.84853
G1 X115.361 Y91.112 E36.88641
G1 X114.825 Y90.109 E36.92423
G1 X114.103 Y89.23 E36.96206
G1 X113.224 Y88.509 E36.99988
G1 X112.221 Y87.972 E37.03772
G1 X111.131 Y87.642 E37.0756
G1 X110 Y87.53 E37.1134
G1 X108.869 Y87.642 E37.1512
G1 X107.779 Y87.972 E37.18908
G1 X106.776 Y88.509 E37.22692
G1 X105.897 Y89.23 E37.26473
G1 X105.175 Y90.109 E37.30256
G1 X104.639 Y91.112 E37.34039
G1 X104.309 Y92.202 E37.37827
G1 X104.197 Y93.333 E37.41607
G1 X104.309 Y94.465 E37.4539
G1 X104.639 Y95.554 E37.49175
G1 X105.175 Y96.557 E37.52957
G1 X105.897 Y97.436 E37.56741
G1 X106.776 Y98.158 E37.60524
G1 X107.779 Y98.694 E37.64307
G1 X108.869 Y99.024 E37.68094
G1 X110 Y99.136 E37.71875
G0 F6000 X110 Y98.734
;TYPE:WALL-OUTER
G1 F1200 X111.053 Y98.63 E37.75394
G1 X112.067 Y98.323 E37.78918
G1 X113.001 Y97.824 E37.8244
G1 X113.819 Y97.152 E37.85961
G1 X114.491 Y96.334 E37.89482
G1 X114.99 Y95.4 E37.93004
G1 X115.297 Y94.387 E37.96524
G1 X115.401 Y93.333 E38.00047
G1 X115.297 Y92.28 E38.03566
G1 X114.99 Y91.266 E38.0709
G1 X114.491 Y90.332 E38.10612
G1 X113.819 Y89.514 E38.14133
G1 X113.001 Y88.843 E38.17652
G1 X112.067 Y88.343 E38.21176
G1 X111.053 Y88.036 E38.247
G1 X110 Y87.932 E38.28219
G1 X108.947 Y88.036 E38.31738
G1 X107.933 Y88.343 E38.35262
G1 X106.999 Y88.843 E38.38786
G1 X106.181 Y89.514 E38.42304
G1 X105.509 Y90.332 E38.45826
G1 X105.01 Y91.266 E38.49348
G1 X104.703 Y92.28 E38.52871
G1 X104.599 Y93.333 E38.56391
G1 X104.703 Y94.387 E38.59913
G1 X105.01 Y95.4 E38.63434
G1 X105.509 Y96.334 E38.66956
G1 X106.181 Y97.152 E38.70477
G1 X106.999 Y97.824 E38.73998
G1 X107.933 Y98.323 E38.7752
G1 X108.947 Y98.63 E38.81044
G1 X110 Y98.734 E38.84563
G0 F6000 X110 Y99.174
G1 F1500 E32.34563
G0 F6000 X110 Y99.729
G0 X110 Y97.865
G0 X110 Y105.468
G0 X110 Y103.604
G0 X113.135 Y105.309
G0 X113.989 Y106.011
G0 X114.691 Y106.865
G0 X115.212 Y107.841
G0 X115.533 Y108.901
G0 X115.642 Y110
G0 X115.533 Y111.099
G0 X115.212 Y112.159
G0 X114.691 Y113.135
G0 X113.989 Y113.989
G0 X113.135 Y114.691
G0 X112.859 Y114.838
G0 X110 Y116.205
;TYPE:WALL-INNER
G1 F1500 E38.84563
G1 F1200 X111.209 Y116.085 E38.88604
G1 X112.375 Y115.732 E38.92656
G1 X113.447 Y115.159 E38.96699
